src/assets/d_works.svg

<?xml version="1.0" standalone="no"?><!DOCTYPE svg PUBLIC "-//W3C//DTD SVG 1.1//EN" "http://www.w3.org/Graphics/SVG/1.1/DTD/svg11.dtd"><svg t="1489829588355" class="icon" style="" viewBox="0 0 1024 1024" version="1.1" xmlns="http://www.w3.org/2000/svg" p-id="4841" xmlns:xlink="http://www.w3.org/1999/xlink" width="200" height="200"><defs><style type="text/css"></style></defs><path d="M449.34 445.452 398.882 445.452 398.882 136.054 91.152 136.054 91.152 87.266 449.34 87.266Z" p-id="4842" fill="#ffffff"></path><path d="M91.236 87.588 141.671 87.588 141.671 396.841 449.255 396.841 449.255 445.607 91.236 445.607Z" p-id="4843" fill="#ffffff"></path><path d="M500.223809 286.623493l238.874048-266.616801 47.414713 42.480985-238.874048 266.616801-47.414713-42.480985Z" p-id="4844" fill="#ffffff"></path><path d="M719.424206 483.011569l238.874048-266.616801 47.413968 42.480318-238.874048 266.616801-47.413968-42.480318Z" p-id="4845" fill="#ffffff"></path><path d="M739.103989 20.004871l266.617546 238.874716-42.481653 47.415458-266.617546-238.874716 42.481653-47.415458Z" p-id="4846" fill="#ffffff"></path><path d="M542.714836 239.205253l266.61829 238.875383-42.481653 47.415458-266.61829-238.875383 42.481653-47.415458Z" p-id="4847" fill="#ffffff"></path><path d="M449.34 938.985 398.882 938.985 398.882 629.588 91.152 629.588 91.152 580.8 449.34 580.8Z" p-id="4848" fill="#ffffff"></path><path d="M91.236 582.209 141.671 582.209 141.671 891.462 449.256 891.462 449.256 940.227 91.236 940.227Z" p-id="4849" fill="#ffffff"></path><path d="M943.628 938.985 893.17 938.985 893.17 629.588 585.44 629.588 585.44 580.8 943.628 580.8Z" p-id="4850" fill="#ffffff"></path><path d="M585.44 580.885 635.875 580.885 635.875 890.138 943.46 890.138 943.46 938.902 585.44 938.902Z" p-id="4851" fill="#ffffff"></path></svg>

<svg xmlns="http://www.w3.org/2000/svg" width="200" height="200" class="icon" viewBox="0 0 1024 1024"><defs><style/></defs><path fill="#fff" d="M449.34 445.452h-50.458V136.054H91.152V87.266H449.34z"/><path fill="#fff" d="M91.236 87.588h50.435v309.253h307.584v48.766H91.236zM500.224 286.623L739.098 20.007l47.415 42.48-238.874 266.617-47.415-42.48zM719.424 483.012l238.874-266.617 47.414 42.48-238.874 266.617-47.414-42.48z"/><path fill="#fff" d="M739.104 20.005l266.618 238.875-42.482 47.415L696.622 67.42l42.482-47.415zM542.715 239.205l266.618 238.876-42.482 47.415-266.618-238.875 42.482-47.416zM449.34 938.985h-50.458V629.588H91.152V580.8H449.34z"/><path fill="#fff" d="M91.236 582.209h50.435v309.253h307.585v48.765H91.236zM943.628 938.985H893.17V629.588H585.44V580.8h358.188z"/><path fill="#fff" d="M585.44 580.885h50.435v309.253H943.46v48.764H585.44z"/></svg>
